X:60
T:Southwest Bridge
C:Dan Huey MacEcheran
S:Bernie Waugh
R:Reel
M:4/4
L:1/8
K:G minor
GF|:\
"Gm"D2GF GABc|"Dm"dgfa "Gm"gdBG|"F"F2CF A,FCF|CDFG "Dm"AGFC|
"G"D2GF GABc|"Dm"dgfa "G"g2ga|"Eb"bagd cdfc|"F"dfcA "Gm"BAG2:|
|:\
"Gm"g2dg BgdB|GBdf gdBG|"F"f2cf AfcA|FAcf agfa|
"C"g2dg BgdB|GBdg bagb|"Eb"agfd cdfc|"F"dfcA "Gm"BAG2:|

